svgs/duotone/badge-sheriff.svg

<svg xmlns="http://www.w3.org/2000/svg" viewBox="0 0 512 512"><!-- Font Awesome Pro 6.0.0-alpha2 by @fontawesome - https://fontawesome.com License - https://fontawesome.com/license (Commercial License) --><defs><style>.fa-secondary{opacity:.4}</style></defs><path d="M256 320C220.625 320 192 291.375 192 256S220.625 192 256 192S320 220.625 320 256S291.375 320 256 320Z" class="fa-secondary"/><path d="M432 304C427.492 304 423.219 304.82 419.082 305.982L389.375 256L419.082 206.018C423.219 207.18 427.492 208 432 208C458.51 208 480 186.51 480 160S458.51 112 432 112C411.131 112 393.549 125.4 386.938 144H322.75L287.188 84.213C297.398 75.41 304 62.539 304 48C304 21.49 282.51 0 256 0S208 21.49 208 48C208 62.578 214.639 75.48 224.896 84.283L189.375 144H125.062C118.451 125.4 100.869 112 80 112C53.49 112 32 133.49 32 160S53.49 208 80 208C84.518 208 88.801 207.176 92.945 206.01L122.75 256L92.945 305.99C88.801 304.824 84.518 304 80 304C53.49 304 32 325.49 32 352S53.49 400 80 400C100.869 400 118.451 386.6 125.062 368H189.25L224.812 427.787C214.602 436.59 208 449.461 208 464C208 490.51 229.49 512 256 512S304 490.51 304 464C304 449.422 297.361 436.52 287.104 427.717L322.625 368H386.937C393.549 386.6 411.131 400 432 400C458.51 400 480 378.51 480 352S458.51 304 432 304ZM256 320C220.625 320 192 291.375 192 256S220.625 192 256 192S320 220.625 320 256S291.375 320 256 320Z" class="fa-primary"/></svg>

<svg xmlns="http://www.w3.org/2000/svg" viewBox="0 0 512 512"><!--! Font Awesome Pro 6.3.0 by @fontawesome - https://fontawesome.com License - https://fontawesome.com/license (Commercial License) Copyright 2023 Fonticons, Inc. --><defs><style>.fa-secondary{opacity:.4}</style></defs><path class="fa-primary" d="M432 304c-4.508 0-8.781 .8203-12.92 1.982L389.4 256l29.71-49.98C423.2 207.2 427.5 208 432 208C458.5 208 480 186.5 480 160s-21.49-48-48-48c-20.87 0-38.45 13.4-45.06 32h-64.19l-35.53-59.81C297.4 75.38 304 62.54 304 48C304 21.49 282.5 0 256 0S208 21.49 208 48c0 14.58 6.579 27.43 16.84 36.23L189.4 144H125.1C118.5 125.4 100.9 112 80 112C53.49 112 32 133.5 32 160s21.49 48 48 48c4.518 0 8.801-.8242 12.95-1.99L122.8 256L92.95 305.1C88.8 304.8 84.52 304 80 304C53.49 304 32 325.5 32 352s21.49 48 48 48c20.87 0 38.45-13.4 45.06-32h64.19l35.53 59.81C214.6 436.6 208 449.5 208 464c0 26.51 21.49 48 48 48s48-21.49 48-48c0-14.58-6.579-27.43-16.84-36.23L322.6 368h64.31c6.611 18.6 24.19 32 45.06 32c26.51 0 48-21.49 48-48S458.5 304 432 304zM256 320c-35.38 0-64-28.62-64-64s28.62-64 64-64s64 28.62 64 64S291.4 320 256 320z"/><path class="fa-secondary" d="M256 320c-35.38 0-64-28.62-64-64s28.62-64 64-64s64 28.62 64 64S291.4 320 256 320z"/></svg>
